public/images/essays/systems/star.svg

<svg height="100" viewBox="0 0 100 100" width="100" xmlns="http://www.w3.org/2000/svg"><rect fill="#fff" height="100%" width="100%"/><svg enable-background="new 0 0 100 100" transform="matrix(.69 0 0 .69 15.5 15.5)" version="1.1" viewBox="0 0 100 100" xmlns="http://www.w3.org/2000/svg" xmlns:xlink="http://www.w3.org/1999/xlink"><path d="m95 39.9-34.6.3-10.4-33-10.4 33-34.6-.3 28.1 20.1-10.9 32.8 27.8-20.5 27.8 20.5-10.9-32.8zm-21 47.7-24-17.8v-15.3l-24 33.1 9.4-28.3 14.6-4.8-38.9-12.6 29.9.2 9 12.4v-40.9l9 28.5-9 12.4 38.9-12.6-24.3 17.4-14.6-4.8z"/></svg></svg>

<svg xmlns="http://www.w3.org/2000/svg" xmlns:xlink="http://www.w3.org/1999/xlink" width="100" height="100" viewBox="0 0 100 100"><rect width="100%" height="100%" fill="#FFFFFF"></rect><g transform="translate(50 50) scale(0.69 0.69) rotate(0) translate(-50 -50)" style="fill:#000000"><svg fill="#000000" xmlns="http://www.w3.org/2000/svg" xmlns:xlink="http://www.w3.org/1999/xlink" version="1.1" x="0px" y="0px" viewBox="0 0 100 100" style="enable-background:new 0 0 100 100;" xml:space="preserve"><polygon points="50,54.5 50,54.5 50,54.5 "></polygon><polygon points="50,54.5 50,54.5 50,54.5 "></polygon><polygon points="50,54.5 50,54.5 50,54.5 "></polygon><polygon points="50,54.5 50,54.5 50,54.5 "></polygon><path d="M95,39.9l-34.6,0.3L50,7.2l-10.4,33L5,39.9L33.1,60L22.2,92.8L50,72.3l27.8,20.5L66.9,60L95,39.9z M74,87.6L50,69.8V54.5  L26,87.6l9.4-28.3L50,54.5L11.1,41.9L41,42.1l9,12.4V13.6l9,28.5l-9,12.4l38.9-12.6L64.6,59.3L50,54.5L74,87.6z"></path></svg></g></svg>
